X: 180
T: Two War Parties
C: Teton Sioux band 1911-1914
N: Derived from sioux175.krn
O: South Dakota, U.S.A.
N: Teton Sioux Music by Frances Densmore, 1918
Z: transcribed to **kern format by Craig Sapp
L: 1/8
M: 2/4
Q: 1/4=58
K: G clef=bass
%%linebreak <none>
D> B, B,3/ D/ [I:setbarnb 1]||  
[M:3/4](3B, A, G,G,2G, G, ||  
[M:2/4]B,/> A,/ B, B,3/ D/ | 
[M:3/4](3B, A, G, (3G, E, D,-D,2 ||  
[M:2/4]E, E, G,3/ E,/ | 
D,2E,/ D,3/ ||  
[M:3/4]B,, B,,2<B,,2B,, | 
B,,2B,,3B, ||  
[M:2/4]D (3:2:1D/ B, (3B,- B, D [I:setbarnb 8]| 
(3B, A, G, (3G, G, E, ||  
[M:3/4]G,> G, B, B, B,/ B,/ B,3// D// | 
(3B, A, G, G,< E,D,2 ||  
[M:2/4]E, E, G,3/ E,/ | 
D,2E,/ D,3/ | 
B,, B,,B,,2 | 
B,,2z2 |]  



